X:0777
M:9/8
L:1/8
Q:3/8=112
K:D
f| d2d     (f/g/a).f afd|(f/g/a).f bge e2f   |d2d   (f/g/a).f afd|(f/g/a).f afd d2f|
   d2d     (f/g/a).f afd|(f/g/a).f bge e2f/e/|dAd    fed      cBA|(B/c/d).B AFD D2|]

